src/assets/wed_icon/icon_28/close_default.svg

<svg width="28" height="28" viewBox="0 0 28 28" fill="none" xmlns="http://www.w3.org/2000/svg">
<path fill-rule="evenodd" clip-rule="evenodd" d="M6.22125 21.7784C5.92835 21.4855 5.95212 20.9868 6.27434 20.6646L20.6654 6.27361C20.9876 5.95139 21.4862 5.92762 21.7791 6.22052C22.072 6.51341 22.0482 7.01205 21.726 7.33427L7.335 21.7253C7.01278 22.0475 6.51414 22.0713 6.22125 21.7784Z" fill="#A9AABC"/>
<path fill-rule="evenodd" clip-rule="evenodd" d="M21.7792 21.7784C22.0721 21.4855 22.0484 20.9868 21.7262 20.6646L7.33513 6.27361C7.01291 5.95139 6.51427 5.92762 6.22138 6.22052C5.92848 6.51341 5.95225 7.01205 6.27447 7.33427L20.6655 21.7253C20.9877 22.0475 21.4863 22.0713 21.7792 21.7784Z" fill="#A9AABC"/>
</svg>

<svg xmlns="http://www.w3.org/2000/svg" width="28" height="28" fill="none"><path fill="#A9AABC" fill-rule="evenodd" d="M6.221 21.778c-.293-.293-.269-.791.053-1.113L20.665 6.274c.323-.323.821-.346 1.114-.053.293.292.27.791-.053 1.113L7.335 21.725c-.322.322-.82.346-1.114.053" clip-rule="evenodd"/><path fill="#A9AABC" fill-rule="evenodd" d="M21.78 21.778c.292-.293.268-.791-.054-1.113L7.336 6.274c-.323-.323-.822-.346-1.115-.053-.293.292-.269.791.053 1.113l14.392 14.391c.322.322.82.346 1.113.053" clip-rule="evenodd"/></svg>
